assets/icons/icon_check_select.svg

<svg width="48" height="48" viewBox="0 0 48 48" fill="none" xmlns="http://www.w3.org/2000/svg">
<g clip-path="url(#clip0_2188_3067)">
<path d="M24 43C34.4934 43 43 34.4934 43 24C43 13.5066 34.4934 5 24 5C13.5066 5 5 13.5066 5 24C5 34.4934 13.5066 43 24 43Z" fill="black"/>
<path d="M21.8303 30.2201C21.2003 30.2201 20.5803 29.9901 20.1103 29.5201L15.1603 24.5701C14.5703 23.9801 14.5703 23.0301 15.1603 22.4501C15.7503 21.8701 16.7003 21.8601 17.2803 22.4501L21.8803 27.0501L30.7203 18.2101C31.3103 17.6201 32.2603 17.6201 32.8403 18.2101C33.4203 18.8001 33.4303 19.7501 32.8403 20.3301L23.7703 29.4001C23.2303 29.9401 22.5203 30.2101 21.8303 30.2101V30.2201Z" fill="white"/>
</g>
<defs>
<clipPath id="clip0_2188_3067">
<rect width="48" height="48" fill="white"/>
</clipPath>
</defs>
</svg>

<?xml version="1.0" encoding="UTF-8"?>
<svg xmlns="http://www.w3.org/2000/svg" viewBox="0 0 48 48">
  <defs>
    <style>
      .cls-1 {
        fill: #fff;
      }

      .cls-2 {
        fill: none;
        opacity: .2;
      }
    </style>
  </defs>
  <g id="guid">
    <g>
      <rect class="cls-2" width="48" height="48"/>
      <rect class="cls-2" x="4" y="4" width="40" height="40"/>
    </g>
  </g>
  <g id="Layer_2" data-name="Layer 2">
    <g>
      <circle cx="24" cy="24" r="19"/>
      <path class="cls-1" d="M21.83,30.22c-.63,0-1.25-.23-1.72-.7l-4.95-4.95c-.59-.59-.59-1.54,0-2.12s1.54-.59,2.12,0l4.6,4.6,8.84-8.84c.59-.59,1.54-.59,2.12,0s.59,1.54,0,2.12l-9.07,9.07c-.54.54-1.25.81-1.94.81Z"/>
    </g>
  </g>
</svg>
